static/img/in-field/lists-disabled.svg

<svg fill="none" height="57" viewBox="0 0 511 57" width="511" xmlns="http://www.w3.org/2000/svg" xmlns:xlink="http://www.w3.org/1999/xlink"><mask id="a" fill="#fff"><path d="m.5.599854h510v56.000046h-510z" fill="#fff"/></mask><g opacity=".4"><path d="m.5.599854h510v56.000046h-510z" fill="#fff"/><path d="m18.6484 37.5999v-15.7051h1.8262v14.0722h6.9717v1.6329zm13.2588-11.7735v11.7735h-1.7832v-11.7735zm-.8701-4.4043c.2936 0 .5443.0967.752.2901.2148.1862.3222.4798.3222.8808 0 .3939-.1074.6875-.3222.8809-.2077.1933-.4584.29-.752.29-.3079 0-.5657-.0967-.7734-.29-.2005-.1934-.3008-.487-.3008-.8809 0-.401.1003-.6946.3008-.8808.2077-.1934.4655-.2901.7734-.2901zm12.5176 12.9551c0 .752-.1898 1.3857-.5693 1.9014-.3724.5084-.9096.8916-1.6114 1.1494-.6946.2578-1.5254.3867-2.4922.3867-.8235 0-1.5361-.0645-2.1377-.1934-.6015-.1289-1.1279-.3115-1.5791-.5478v-1.6436c.4799.2364 1.0528.4512 1.7188.6446.666.1933 1.3463.29 2.041.29 1.0169 0 1.7546-.1647 2.2129-.4941.4583-.3295.6875-.7771.6875-1.3428 0-.3223-.0931-.6052-.2793-.8486-.179-.2507-.4834-.4906-.9131-.7198-.4297-.2363-1.0241-.4941-1.7832-.7734-.7519-.2865-1.4036-.5693-1.9551-.8486-.5442-.2865-.9668-.6338-1.2675-1.042-.2937-.4082-.4405-.9382-.4405-1.5899 0-.9954.4011-1.7581 1.2031-2.2881.8093-.5371 1.8692-.8056 3.1797-.8056.709 0 1.3715.0716 1.9873.2148.6231.1361 1.2032.3223 1.7403.5586l-.6016 1.4287c-.487-.2077-1.0062-.3831-1.5576-.5263-.5514-.1433-1.1136-.2149-1.6865-.2149-.8236 0-1.4574.1361-1.9014.4082-.4368.2721-.6553.6445-.6553 1.1172 0 .3652.1003.666.3008.9023.2077.2364.5371.4584.9883.6661.4512.2076 1.0456.4511 1.7832.7304.7376.2722 1.375.555 1.9121.8487.5371.2864.9489.6373 1.2354 1.0527.2936.4082.4404.9346.4404 1.5791zm6.9209 1.9766c.2936 0 .5944-.0251.9023-.0752.308-.0502.5586-.111.752-.1827v1.3858c-.2077.0931-.4977.1719-.8701.2363-.3653.0645-.7233.0967-1.0743.0967-.623 0-1.1888-.1074-1.6972-.3223-.5085-.222-.9167-.5944-1.2246-1.1172-.3008-.5227-.4512-1.246-.4512-2.1699v-6.9824h-1.6758v-.8701l1.6865-.6983.709-2.5566h1.0742v2.7285h3.4483v1.3965h-3.4483v6.9287c0 .7376.1683 1.2891.5049 1.6543.3438.3652.7985.5479 1.3643.5479zm10.5224 1.2461v-15.7051h1.8262v15.7051zm9.9288-1.2461c.2936 0 .5944-.0251.9023-.0752.3079-.0502.5586-.111.752-.1827v1.3858c-.2077.0931-.4978.1719-.8702.2363-.3652.0645-.7233.0967-1.0742.0967-.623 0-1.1888-.1074-1.6972-.3223-.5085-.222-.9167-.5944-1.2247-1.1172-.3007-.5227-.4511-1.246-.4511-2.1699v-6.9824h-1.6758v-.8701l1.6865-.6983.709-2.5566h1.0742v2.7285h3.4483v1.3965h-3.4483v6.9287c0 .7376.1683 1.2891.5049 1.6543.3437.3652.7985.5479 1.3643.5479zm8.8222-10.7422c1.0026 0 1.862.222 2.5781.666.7162.444 1.264 1.067 1.6436 1.8691.3796.795.5693 1.7259.5693 2.793v1.1064h-8.1318c.0215 1.3822.3652 2.4349 1.0313 3.1582.666.7234 1.6041 1.085 2.8144 1.085.7448 0 1.4037-.068 1.9766-.2041s1.1673-.3366 1.7832-.6016v1.5684c-.5944.265-1.1852.4583-1.7725.5801-.5801.1217-1.2676.1826-2.0625.1826-1.1315 0-2.1198-.2292-2.9648-.6875-.8379-.4655-1.4896-1.1458-1.9551-2.041s-.6983-1.9909-.6983-3.2871c0-1.2676.2113-2.3633.6338-3.2871.4297-.931 1.0313-1.6472 1.8047-2.1485.7806-.5013 1.6973-.7519 2.75-.7519zm-.0215 1.4609c-.9524 0-1.7115.3115-2.2773.9346-.5658.623-.9023 1.4931-1.0098 2.6103h6.2305c-.0072-.7018-.1182-1.3177-.333-1.8476-.2077-.5371-.5264-.9525-.9561-1.2461-.4297-.3008-.9811-.4512-1.6543-.4512zm20.8755-1.4609c1.296 0 2.273.3401 2.932 1.0205.659.6732.988 1.7581.988 3.2549v7.7129h-1.761v-7.627c0-.9525-.208-1.665-.623-2.1377-.409-.4798-1.017-.7197-1.827-.7197-1.1382 0-1.9653.3294-2.4809.9883-.5157.6588-.7735 1.6292-.7735 2.9111v6.585h-1.7724v-7.627c0-.6374-.0931-1.1673-.2793-1.5898-.1791-.4226-.4512-.7377-.8164-.9454-.3581-.2148-.8129-.3222-1.3643-.3222-.7806 0-1.4072.1611-1.8799.4834-.4726.3222-.8164.8021-1.0312 1.4394-.2077.6302-.3116 1.4073-.3116 2.3311v6.2305h-1.7832v-11.7735h1.4395l.2685 1.6651h.0967c.2364-.4082.5336-.752.8916-1.0313.3581-.2793.7591-.4906 1.2032-.6338.444-.1432.9166-.2148 1.4179-.2148.8952 0 1.6436.1683 2.2451.5049.6088.3294 1.0492.8343 1.3213 1.5146h.0967c.3867-.6803.9167-1.1852 1.5898-1.5146.6732-.3366 1.4109-.5049 2.2134-.5049z" fill="#252a2e"/><path d="m510.5 55.5999h-510v2h510z" fill="#a3a6b1" mask="url(#a)"/></g></svg>

<svg width="511" height="57" viewBox="0 0 511 57" fill="none" xmlns="http://www.w3.org/2000/svg"><g opacity=".4"><mask id="path-1-inside-1_7345_83129" fill="#fff"><path d="M0.5 0.599854H510.5V56.5999H0.5V0.599854Z"/></mask><path d="M0.5 0.599854H510.5V56.5999H0.5V0.599854Z" fill="#fff"/><path d="M18.6484 37.5999V21.8948H20.4746V35.967H27.4463V37.5999H18.6484ZM31.9072 25.8264V37.5999H30.124V25.8264H31.9072ZM31.0371 21.4221C31.3307 21.4221 31.5814 21.5188 31.7891 21.7122C32.0039 21.8984 32.1113 22.192 32.1113 22.593C32.1113 22.9869 32.0039 23.2805 31.7891 23.4739C31.5814 23.6672 31.3307 23.7639 31.0371 23.7639C30.7292 23.7639 30.4714 23.6672 30.2637 23.4739C30.0632 23.2805 29.9629 22.9869 29.9629 22.593C29.9629 22.192 30.0632 21.8984 30.2637 21.7122C30.4714 21.5188 30.7292 21.4221 31.0371 21.4221ZM43.5547 34.3772C43.5547 35.1292 43.3649 35.7629 42.9854 36.2786C42.613 36.787 42.0758 37.1702 41.374 37.428C40.6794 37.6858 39.8486 37.8147 38.8818 37.8147C38.0583 37.8147 37.3457 37.7502 36.7441 37.6213C36.1426 37.4924 35.6162 37.3098 35.165 37.0735V35.4299C35.6449 35.6663 36.2178 35.8811 36.8838 36.0745C37.5498 36.2678 38.2301 36.3645 38.9248 36.3645C39.9417 36.3645 40.6794 36.1998 41.1377 35.8704C41.596 35.5409 41.8252 35.0933 41.8252 34.5276C41.8252 34.2053 41.7321 33.9224 41.5459 33.679C41.3669 33.4283 41.0625 33.1884 40.6328 32.9592C40.2031 32.7229 39.6087 32.4651 38.8496 32.1858C38.0977 31.8993 37.446 31.6165 36.8945 31.3372C36.3503 31.0507 35.9277 30.7034 35.627 30.2952C35.3333 29.887 35.1865 29.357 35.1865 28.7053C35.1865 27.7099 35.5876 26.9472 36.3896 26.4172C37.1989 25.8801 38.2588 25.6116 39.5693 25.6116C40.2783 25.6116 40.9408 25.6832 41.5566 25.8264C42.1797 25.9625 42.7598 26.1487 43.2969 26.385L42.6953 27.8137C42.2083 27.606 41.6891 27.4306 41.1377 27.2874C40.5863 27.1441 40.0241 27.0725 39.4512 27.0725C38.6276 27.0725 37.9938 27.2086 37.5498 27.4807C37.113 27.7528 36.8945 28.1252 36.8945 28.5979C36.8945 28.9631 36.9948 29.2639 37.1953 29.5002C37.403 29.7366 37.7324 29.9586 38.1836 30.1663C38.6348 30.3739 39.2292 30.6174 39.9668 30.8967C40.7044 31.1689 41.3418 31.4517 41.8789 31.7454C42.416 32.0318 42.8278 32.3827 43.1143 32.7981C43.4079 33.2063 43.5547 33.7327 43.5547 34.3772ZM50.4756 36.3538C50.7692 36.3538 51.07 36.3287 51.3779 36.2786C51.6859 36.2284 51.9365 36.1676 52.1299 36.0959V37.4817C51.9222 37.5748 51.6322 37.6536 51.2598 37.718C50.8945 37.7825 50.5365 37.8147 50.1855 37.8147C49.5625 37.8147 48.9967 37.7073 48.4883 37.4924C47.9798 37.2704 47.5716 36.898 47.2637 36.3752C46.9629 35.8525 46.8125 35.1292 46.8125 34.2053V27.2229H45.1367V26.3528L46.8232 25.6545L47.5322 23.0979H48.6064V25.8264H52.0547V27.2229H48.6064V34.1516C48.6064 34.8892 48.7747 35.4407 49.1113 35.8059C49.4551 36.1711 49.9098 36.3538 50.4756 36.3538ZM60.998 37.5999V21.8948H62.8242V37.5999H60.998ZM70.9268 36.3538C71.2204 36.3538 71.5212 36.3287 71.8291 36.2786C72.137 36.2284 72.3877 36.1676 72.5811 36.0959V37.4817C72.3734 37.5748 72.0833 37.6536 71.7109 37.718C71.3457 37.7825 70.9876 37.8147 70.6367 37.8147C70.0137 37.8147 69.4479 37.7073 68.9395 37.4924C68.431 37.2704 68.0228 36.898 67.7148 36.3752C67.4141 35.8525 67.2637 35.1292 67.2637 34.2053V27.2229H65.5879V26.3528L67.2744 25.6545L67.9834 23.0979H69.0576V25.8264H72.5059V27.2229H69.0576V34.1516C69.0576 34.8892 69.2259 35.4407 69.5625 35.8059C69.9062 36.1711 70.361 36.3538 70.9268 36.3538ZM79.749 25.6116C80.7516 25.6116 81.611 25.8336 82.3271 26.2776C83.0433 26.7216 83.5911 27.3446 83.9707 28.1467C84.3503 28.9417 84.54 29.8726 84.54 30.9397V32.0461H76.4082C76.4297 33.4283 76.7734 34.481 77.4395 35.2043C78.1055 35.9277 79.0436 36.2893 80.2539 36.2893C80.9987 36.2893 81.6576 36.2213 82.2305 36.0852C82.8034 35.9491 83.3978 35.7486 84.0137 35.4836V37.052C83.4193 37.317 82.8285 37.5103 82.2412 37.6321C81.6611 37.7538 80.9736 37.8147 80.1787 37.8147C79.0472 37.8147 78.0589 37.5855 77.2139 37.1272C76.376 36.6617 75.7243 35.9814 75.2588 35.0862C74.7933 34.191 74.5605 33.0953 74.5605 31.7991C74.5605 30.5315 74.7718 29.4358 75.1943 28.512C75.624 27.581 76.2256 26.8648 76.999 26.3635C77.7796 25.8622 78.6963 25.6116 79.749 25.6116ZM79.7275 27.0725C78.7751 27.0725 78.016 27.384 77.4502 28.0071C76.8844 28.6301 76.5479 29.5002 76.4404 30.6174H82.6709C82.6637 29.9156 82.5527 29.2997 82.3379 28.7698C82.1302 28.2327 81.8115 27.8173 81.3818 27.5237C80.9521 27.2229 80.4007 27.0725 79.7275 27.0725ZM100.603 25.6116C101.899 25.6116 102.876 25.9517 103.535 26.6321C104.194 27.3053 104.523 28.3902 104.523 29.887V37.5999H102.762V29.9729C102.762 29.0204 102.554 28.3079 102.139 27.8352C101.73 27.3554 101.122 27.1155 100.312 27.1155C99.1738 27.1155 98.3467 27.4449 97.8311 28.1038C97.3154 28.7626 97.0576 29.733 97.0576 31.0149V37.5999H95.2852V29.9729C95.2852 29.3355 95.1921 28.8056 95.0059 28.3831C94.8268 27.9605 94.5547 27.6454 94.1895 27.4377C93.8314 27.2229 93.3766 27.1155 92.8252 27.1155C92.0446 27.1155 91.418 27.2766 90.9453 27.5989C90.4727 27.9211 90.1289 28.401 89.9141 29.0383C89.7064 29.6685 89.6025 30.4456 89.6025 31.3694V37.5999H87.8193V25.8264H89.2588L89.5273 27.4915H89.624C89.8604 27.0833 90.1576 26.7395 90.5156 26.4602C90.8737 26.1809 91.2747 25.9696 91.7188 25.8264C92.1628 25.6832 92.6354 25.6116 93.1367 25.6116C94.0319 25.6116 94.7803 25.7799 95.3818 26.1165C95.9906 26.4459 96.431 26.9508 96.7031 27.6311H96.7998C97.1865 26.9508 97.7165 26.4459 98.3896 26.1165C99.0628 25.7799 99.8005 25.6116 100.603 25.6116Z" fill="#252A2E"/><path d="M510.5 55.5999H0.5V57.5999H510.5V55.5999Z" fill="#A3A6B1" mask="url(#path-1-inside-1_7345_83129)"/></g></svg>
